X:1
T:Vesleblomme
T:W. Peterson-Berger (1867-1942)
T:Ur Björnstjerne Björnsons "Synnöve Solbakken"
T:Vesleblomme
T:©CPDL Edition may be freely distributed, duplicated, performed and recorded PA Aglert
T:©CPDL Edition may be freely distributed, duplicated, performed and recorded PA Aglert
T:©CPDL Edition may be freely distributed, duplicated, performed and recorded PA Aglert
T:©CPDL Edition may be freely distributed, duplicated, performed and recorded PA Aglert
T:©CPDL Edition may be freely distributed, duplicated, performed and recorded PA Aglert
T:©CPDL Edition may be freely distributed, duplicated, performed and recorded PA Aglert
T:©CPDL Edition may be freely distributed, duplicated, performed and recorded PA Aglert
C:W Peterson-Berger
Z:©CPDL Edition may be freely distributed, duplicated, performed and recorded
Z:PA Aglert
%%score [ 1 2 3 4 ]
L:1/8
Q:1/4=60
M:2/4
K:Bbmin
V:1 treble nm="S"
V:2 treble nm="A"
V:3 treble-8 nm="T"
V:4 bass nm="B"
V:1
"^Andante"!mp! F>F GG | EA FF |!mf! d!>(!d c!>)!B | =A2- !fermata!A>!mp!F || %4
w: Ves- le- blom- me,|eng- e- blom- me,|hör nu lidt på|mig: * Og|
[M:3/4][Q:1/4=100]"^Allegretto" G3!<(! E F=A!<)! |!<(! B2 B!<)!c d2 | c3 e d2 | B4!p! F2 | %8
w: vil du væ- re|kjæ- re- sten min,|kjæ- res- ten|min, jeg|
!<(! A3 G AB!<)! | c4!>(! =E2!>)! |!<(! (F6 | !courtesy!_G4)!<)!!mf! =G2 |S A4 d2 | d2 c2 e2 | %14
w: gi- ver dig en|Kå- be|fin|* af|flöjl og|guld * og|
 B3 c B2 | A4 F2 | F4 =E2 | F4 A2 |"^rit."!>(! F4 =E2 | !fermata!F6!>)! || %20
w: per- * ler|fuld, af|flöjl og|guld og|per- ler|fuld.|
[M:2/4][Q:1/4=120]"^Allegro"!p! (3GFE (3GFE | F2 F2 | z4 | z4 ||[M:3/4] z6 |!pp!!<(! F6-!<)! | %26
w: Dit- te- li, dut- te- li,|de- ja,||||He-|
 F2!f!!>(! F2!>)! z2 ||[K:Bb][Q:1/4=100]"^Allegretto" z6 | z6 |!p! F6- | F6 |!mf! FG{/c} A2 GF | %32
w: * ja!|||Ja||So- len ski- ner på|
{/A} G2!>(! F4-!>)! |!p! F6- |!<(! F6!<)! |!mf! FG{/c} A2 GF |{/A} G2 F4- |!mp! F6- | F6- | F6 | %40
w: he- ja,|||So- len ski- ner på|he- ja,||||
!mf!{/A} G2 F4- | F6 |!pp!!<(! F6-!<)! | F2!ff! !>!F2 z2!fine! || %44
w: he- ja,||he-|* ja!|
[K:Db][M:2/4][Q:1/4=60]"^Andante"!mp! F2 GG | EA FF |!mf!!>(! dd cB!>)! | =A2- !fermata!A>!mp!F || %48
w: Guld- dron- ning,|eng- e- dron- ning,|hör nu lidt på|mig: * Jeg|
[M:3/4][Q:1/4=100]"^Allegretto" G3 E!<(! F=A | B2 B!<)!c d2 | c3 e d2 | B4!p! F2 | %52
w: vil ej væ- re|kjæ- res- ten din,|kjæ- res- ten|din, jeg|
!<(! A3 G AB!<)! |!>(! c4 =E2!>)! |!<(! F6!<)! |S !courtesy!_G4 =G2!D.S.! |] %56
w: vil ej ha- ve|kå- ben|fin|* af|
V:2
!mp! D>D DD | CC DD |!mf! D!>(!D EF!>)! | F/G/F/G/ !fermata!F>!mp!E ||[M:3/4] E3!<(! C D!<)!E | %5
w: Ves- le- blom- me,|eng- e- blom- me,|hör nu lidt ja|hör nu lidt på mig: Og|vil du væ- re|
!<(! F2 F!<)!=A B2 | G3 G G2 | F4!p! F2 |!<(! F3 =E F!<)!G | F4!>(! C2!>)! |!<(! C6- | %11
w: kjæ- re- sten min,|kjæ- res- ten|min, jeg|gi- ver dig en|Kå- be|fin|
 C4!<)!!mf! D2 | D4 A2 | G4 G2 | G4 G2 | F4 D2 | D4 D2 | D4 D2 |"^rit."!>(! D4 B,2 | %19
w: * af|flöjl og|guld og|per- ler|fuld, af|flöjl og|guld og|per- ler|
 !fermata!C6!>)! ||[M:2/4] z4 |!mp! (3DCB, (3DCB, | C2 C2 | z4 ||[M:3/4] z6 |!pp!!<(! E6-!<)! | %26
w: fuld.||Dit- te- li, dut- te- li,|de- ja,|||He-|
 E2!f!!>(! E2!>)! z2 ||[K:Bb] z6 | z2 z2 z!mf! D | CD{/F} E2 DC | (3DCD B,3 D |!mp! E4 E2 | D4 D2 | %33
w: * ja!||Og|so- len ski- ner på|he- * * ja, på|he- ja,|he- ja,|
!mf! CD{/F} E2 DC | (3DCD B,3 D |!mp! E4 E2 | D4 D2 | E4 E2 | D4 D2 | D4 D2 | D4 D2 | D4 D2 | %42
w: So- len ski- ner på|he- * * ja, på|he- ja,|he- ja|he- ja|he- ja|he- ja|he- ja|he- ja|
!pp!!<(! D6-!<)! | D2!ff! !>!D2 z2 ||[K:Db][M:2/4]!mp! D2 DD | CC DD |!mf! D!>(!D E!>)!F | %47
w: he-|* ja!|Guld- dron- ning,|eng- e- dron- ning,|hör nu lidt ja|
 F/G/F/G/ !fermata!F>!mp!E ||[M:3/4] E3 C!<(! DE | F2 F!<)!=A B2 | G3 G G2 | F4!p! F2 | %52
w: hör nu lidt på mig: Jeg|vil ej væ- re|kjæ- res- ten din,|kjæ- res- ten|din, jeg|
!<(! F3 =E F!<)!G |!>(! F4 C2!>)! |!<(! C6-!<)! | C4 D2 |] %56
w: vil ej ha- ve|kå- ben|fin|* af|
V:3
!mp! B>B BB | AA AA |!mf! B!>(!F =A!>)!B | c2- !fermata!c>!mp!c ||[M:3/4] B3!<(! B Bc!<)! | %5
w: Ves- le- blom- me,|eng- e- blom- me,|hör nu lidt på|mig: * Og|vil du væ- re|
!<(! d2 d!<)!e f2 | e3 e e2 | d4!p! d2 |!<(! c4 c2!<)! | c4!>(! B2!>)! |!<(! A6- | %11
w: kjæ- re- sten min,|kjæ- res- ten|min, jeg|gi- ver|dig en|Kå-|
 A2 A2!<)!!mf! A2 | A4 A2 | A4 A2 | A4 A2 | A4 A2 | B4 B2 | A4 A2 |"^rit."!>(! B4 B2 | %19
w: * be af|flöjl og|guld og|per- ler|fuld, af|flöjl og|guld og|per- ler|
 !fermata!=A6!>)! ||[M:2/4] z4 | z4 |!mf! (3GFE (3GFE | F2 F2 ||[M:3/4] z6 |!pp!!<(! =A6-!<)! | %26
w: fuld.|||Dit- te- li, dut- te- li,|de- ja,||He-|
 A2!f!!>(! =A2!>)! z2 ||[K:Bb]!mp! F4 F2 | F4 F2 | F4 F2 | F4 F2 | F4 F2 | F4 F2 | F4 F2 | F4 F2 | %35
w: * ja!|He- ja,|he- ja|he- ja|he- ja|he- ja|he- ja|he- ja|he- ja|
 F4 F2 | F4 F2 | F!mf!G{/c} A2 GF |{/A} G2 F4- | F6- | F6- | F6 |!pp!!<(! F6-!<)! | %43
w: he- ja|he- ja|So- len ski- ner på|he- ja,||||he-|
 F2!ff! !>!F2 z2 ||[K:Db][M:2/4]!mp! B2 BB | AA AA |!mf! B!>(!F =A!>)!B | c2- !fermata!c>!mp!c || %48
w: * ja!|Guld- dron- ning,|eng- e- dron- ning,|hör nu lidt på|mig: * Jeg|
[M:3/4] B3 B!<(! Bc | d2 d!<)!e f2 | e3 e e2 | d4!p! d2 |!<(! c4 c2!<)! |!>(! c4 B2!>)! | %54
w: vil ej væ- re|kjæ- res- ten din,|kjæ- res- ten|din, jeg|vil ej|ha- ve|
!<(! A6-!<)! | A2 A2 A2 |] %56
w: kå-|* ben af|
V:4
!mp! B,>B, G,G, | A,A, D,D, |!mf! B,,!>(!B,, C,D,!>)! | F,2- !fermata!F,>!mp!=A, || %4
w: Ves- le- blom- me,|eng- e- blom- me,|hör nu lidt på|mig: * Og|
[M:3/4] B,4!<(! B,2!<)! |!<(! B,4!<)! B,2 | B,3 B, B,2 | B,4!p! B,2 |!<(! C6!<)! | %9
w: vil du|væ- re|kjæ- res- ten|min, jeg|gi-|
 A,3!>(! B, A,G,!>)! |!<(! F,4 F,2 | E,4!<)!!mf! =E,2 | F,2 A,,2 F,2 | E,2 A,,2 E,2 | %14
w: * ver dig en|Kå- be|fin af|flöjl * og|guld * og|
 D,2 A,,2 C,2 | D,4 D,2 | G,4 G,2 | D,4 F,2 |"^rit."!>(! G,4 G,2!>)! | !fermata!F,6 ||[M:2/4] z4 | %21
w: per- * ler|fuld, af|flöjl og|guld og|per- ler|fuld.||
 z4 | z4 |!f! (3D,C,B,, (3D,C,B,, ||[M:3/4] C,2 C,2 z2 |!pp!!<(! F,6-!<)! | %26
w: ||Dit- te- li, dut- te- li,|de- ja,|He-|
 F,2!f!!>(! F,2!>)! z2 ||[K:Bb]!mp! B,,4 B,,2 | B,,4 B,,2 | B,,4 B,,2 | B,,4 B,,2 | B,,4 B,,2 | %32
w: * ja!|He- ja,|he- ja|he- ja|he- ja|he- ja|
 B,,4 B,,2 | B,,4 B,,2 | B,,4 B,,2 | B,,4 B,,2 | B,,4 B,,2 | B,,4 B,,2 | B,,4 B,,2 | B,,4 B,,2 | %40
w: he- ja|he- ja|he- ja|he- ja|he- ja|he- ja|he- ja|he- ja|
 B,,4 B,,2 | B,,4 B,,2 |!pp!!<(! B,,6-!<)! | B,,2!ff! !>!B,,2 z2 ||[K:Db][M:2/4]!mp! B,2 G,G, | %45
w: he- ja|he- ja|he-|* ja!|Guld- dron- ning,|
 A,A, D,D, |!mf! B,,!>(!B,, C,!>)!D, | F,2- !fermata!F,>!mp!=A, ||[M:3/4] B,4!<(! B,2 | %49
w: eng- e- dron- ning,|hör nu lidt på|mig: * Jeg|vil ej|
 B,4!<)! B,2 | B,3 B, B,2 | B,4!p! B,2 |!<(! (C6!<)! | A,3)!>(! B, A,!>)!G, | F,4 F,2 | %55
w: væ- re|kjæ- res- ten|din, jeg|vil|* ej ha- ve|kå- ben|
!<(! E,4 =E,2!<)! |] %56
w: fin af|

